( Wing segment 1/1 for left side )
( Wing root airfoil: CLARK-Y 11.7% smoothed, 150mm chord )
( Wing tip airfoil: CLARK-Y 11.7% smoothed, 150mm chord )
( Wing segment length: 500 mm )
( Foam block width: 500 mm )
( Foam block height: 100 mm )
( Foam block length: 500 mm )
( Foam block offset: 50 mm )
( Machine X/U axis length: 500 mm )
( Machine Y/V axis length: 300 mm )
( Cutting speed: 300 mm/min )
( Hot wire relay control speed: false )
G17
G21
( SET ABSOLUTE MODE )
G90
( SET CUTTER COMPENSATION )
G40
( SET TOOL LENGTH OFFSET )
G49
( SET PATH CONTROL MODE )
G64
( SET FEED RATE MODE )
G94
F300
( FIRST-VERTICAL )
G1 X0.00 Y9.32 Z0.00 A9.32
( PRE-ENTRY )
G1 X0.00 Y9.32 Z0.00 A9.32
( ENTRY )
G1 X10.00 Y9.32 Z10.00 A9.32
( TOP SECTION )
G1 X10.00 Y9.32 Z10.00 A9.32
G1 X10.16 Y10.17 Z10.16 A10.17
G1 X10.64 Y11.13 Z10.64 A11.13
G1 X11.44 Y12.16 Z11.44 A12.16
G1 X12.55 Y13.23 Z12.55 A13.23
G1 X13.98 Y14.28 Z13.98 A14.28
G1 X15.71 Y15.29 Z15.71 A15.29
G1 X17.73 Y16.27 Z17.73 A16.27
G1 X20.04 Y17.22 Z20.04 A17.22
G1 X22.64 Y18.16 Z22.64 A18.16
G1 X25.49 Y19.08 Z25.49 A19.08
G1 X28.61 Y19.96 Z28.61 A19.96
G1 X31.96 Y20.75 Z31.96 A20.75
G1 X35.54 Y21.43 Z35.54 A21.43
G1 X39.34 Y21.99 Z39.34 A21.99
G1 X43.33 Y22.42 Z43.33 A22.42
G1 X47.49 Y22.76 Z47.49 A22.76
G1 X51.82 Y23.00 Z51.82 A23.00
G1 X56.29 Y23.17 Z56.29 A23.17
G1 X60.89 Y23.25 Z60.89 A23.25
G1 X65.58 Y23.24 Z65.58 A23.24
G1 X75.20 Y22.97 Z75.20 A22.97
G1 X84.99 Y22.36 Z84.99 A22.36
G1 X94.78 Y21.45 Z94.78 A21.45
G1 X104.41 Y20.27 Z104.41 A20.27
G1 X113.70 Y18.90 Z113.70 A18.90
G1 X122.50 Y17.42 Z122.50 A17.42
G1 X130.65 Y15.90 Z130.65 A15.90
G1 X138.03 Y14.41 Z138.03 A14.41
G1 X144.50 Y13.02 Z144.50 A13.02
G1 X149.95 Y11.80 Z149.95 A11.80
G1 X154.29 Y10.77 Z154.29 A10.77
G1 X157.44 Y9.99 Z157.44 A9.99
G1 X159.36 Y9.49 Z159.36 A9.49
G1 X160.00 Y9.32 Z160.00 A9.32
G1 X160.00 Y9.32 Z160.00 A9.32
( EASING )
G1 X170.00 Y9.32 Z170.00 A9.32
( EASING RETURN )
G1 X160.00 Y9.32 Z160.00 A9.32
( BOTTOM SECTION )
G1 X160.00 Y9.32 Z160.00 A9.32
G1 X160.00 Y9.32 Z160.00 A9.32
G1 X159.36 Y9.28 Z159.36 A9.28
G1 X157.44 Y9.18 Z157.44 A9.18
G1 X154.29 Y9.03 Z154.29 A9.03
G1 X149.95 Y8.86 Z149.95 A8.86
G1 X144.50 Y8.67 Z144.50 A8.67
G1 X138.03 Y8.45 Z138.03 A8.45
G1 X130.66 Y8.19 Z130.66 A8.19
G1 X122.50 Y7.91 Z122.50 A7.91
G1 X113.70 Y7.60 Z113.70 A7.60
G1 X104.41 Y7.28 Z104.41 A7.28
G1 X94.79 Y6.94 Z94.79 A6.94
G1 X85.00 Y6.60 Z85.00 A6.60
G1 X75.21 Y6.25 Z75.21 A6.25
G1 X65.59 Y5.91 Z65.59 A5.91
G1 X60.89 Y5.75 Z60.89 A5.75
G1 X56.30 Y5.58 Z56.30 A5.58
G1 X51.83 Y5.43 Z51.83 A5.43
G1 X47.50 Y5.29 Z47.50 A5.29
G1 X43.33 Y5.16 Z43.33 A5.16
G1 X39.34 Y5.07 Z39.34 A5.07
G1 X35.55 Y5.01 Z35.55 A5.01
G1 X31.97 Y5.00 Z31.97 A5.00
G1 X28.61 Y5.03 Z28.61 A5.03
G1 X25.50 Y5.11 Z25.50 A5.11
G1 X22.64 Y5.23 Z22.64 A5.23
G1 X20.05 Y5.40 Z20.05 A5.40
G1 X17.74 Y5.63 Z17.74 A5.63
G1 X15.71 Y5.93 Z15.71 A5.93
G1 X13.98 Y6.31 Z13.98 A6.31
G1 X12.56 Y6.77 Z12.56 A6.77
G1 X11.44 Y7.30 Z11.44 A7.30
G1 X10.64 Y7.90 Z10.64 A7.90
G1 X10.16 Y8.57 Z10.16 A8.57
G1 X10.00 Y9.32 Z10.00 A9.32
( PRE-EXIT )
G1 X0.00 Y9.32 Z0.00 A9.32
( EXIT )
G1 X0.00 Y9.32 Z0.00 A9.32
( GO TO ZERO )
G1 X0.00 Y0.00 Z0.00 A0.00
M2